assets/features/home/9377.svg

<svg width="85" height="64" viewBox="0 0 85 64" fill="none" xmlns="http://www.w3.org/2000/svg">
<g clip-path="url(#clip0_22_143)">
<path d="M81.8608 22.8472C80.4379 20.9795 78.6406 19.4978 76.6311 18.29C76.2317 18.041 76.1692 17.8542 76.3565 17.4184C77.7918 14.1562 79.1773 10.869 80.6127 7.60677C80.7874 7.20832 80.7375 6.99665 80.388 6.73517C78.391 5.21611 76.2067 4.04568 73.8726 3.12428C68.4057 0.970193 62.6892 0.111049 56.8603 0.011438C46.0637 -0.175332 35.704 1.92895 25.7563 6.05035C19.3158 8.71494 13.3621 12.1764 8.25712 16.9826C5.22411 19.8465 2.65291 23.0589 1.14264 26.9935C-0.792002 32.0363 -0.330186 36.7928 2.98991 41.1632C4.4128 43.0309 6.21015 44.5126 8.21968 45.7204C8.61909 45.957 8.68149 46.1562 8.49427 46.5795C7.05889 49.8418 5.66096 53.1289 4.23806 56.3912C4.06332 56.7896 4.10077 56.9889 4.45025 57.2628C6.62204 58.9064 9.00601 60.1515 11.5398 61.1103C17.3437 63.2893 23.3848 63.9741 29.1263 64.0488C31.4978 64.0363 33.4449 63.9243 35.392 63.75C44.8156 62.9282 53.8273 60.55 62.3771 56.4908C68.0812 53.7889 73.3359 50.4021 77.7669 45.8573C80.388 43.1679 82.5723 40.192 83.8454 36.6184C85.5928 31.6877 85.0686 27.0682 81.8608 22.8472ZM23.7717 30.4924C23.7717 31.5756 23.8341 32.6589 23.7342 33.7422C23.7342 33.8791 23.7342 34.0161 23.6843 34.1531C23.7467 37.627 21.9868 41.3749 17.1315 41.7359C15.2842 41.8729 13.4744 41.6363 11.6895 41.2752C10.4414 41.0138 9.70498 39.8558 9.94213 38.6729C10.1793 37.4651 11.3525 36.7056 12.6132 36.9173C13.9986 37.1414 15.3966 37.4527 16.8195 37.2161C18.2299 36.992 19.1161 36.0083 19.2284 34.6013C19.2658 34.1904 19.0537 34.2776 18.8165 34.3149C17.2064 34.5515 15.5963 34.6262 13.9862 34.2402C11.0904 33.543 9.24316 31.2644 9.16827 28.2885C9.14331 27.3795 9.11835 26.4706 9.26813 25.5616C9.77987 22.3741 12.1389 20.1826 15.3841 19.9087C16.8694 19.7842 18.3297 19.8838 19.7401 20.4068C20.851 20.8177 21.6498 21.5523 22.2614 22.5235C23.2724 24.1297 23.6968 25.9103 23.7842 27.778C23.8216 28.6869 23.7842 29.5959 23.7717 30.5173V30.4924ZM34.5308 41.5616C32.3465 41.8978 30.1747 41.6737 28.0154 41.3749C26.7548 41.2005 26.7049 41.1383 26.6924 39.8184C26.6924 39.0714 26.7673 38.3243 26.9794 37.6021C27.1292 37.1289 27.3913 36.9173 27.928 36.9173C28.8267 36.9173 29.7004 37.1165 30.5866 37.2286C31.7848 37.378 32.9956 37.4402 34.1813 37.1663C35.9162 36.7679 36.6526 34.5266 35.5293 33.157C35.2547 32.8208 34.9177 32.7212 34.4933 32.6838C32.5837 32.5593 30.674 32.5593 28.7643 32.5717C28.29 32.5717 28.0404 32.4348 27.9405 31.9741C27.7283 31.0153 27.5037 30.069 27.6035 29.0854C27.6784 28.3383 27.8407 28.2013 28.5896 28.2013C30.4868 28.2138 32.3715 28.2013 34.2562 27.9772C35.2173 27.8651 35.8413 27.2177 35.9287 26.2091C36.0161 25.2503 35.4794 24.5033 34.5433 24.2791C33.5822 24.0426 32.5961 24.1173 31.8223 24.1546C30.3619 24.2542 29.0888 24.2667 27.8407 24.4784C27.3913 24.5531 27.1043 24.3912 26.9794 23.9679C26.6175 22.8348 26.6175 21.6893 26.942 20.5313C27.0044 20.2947 27.1417 20.1328 27.4163 20.1079C30.1872 19.834 32.9706 19.3982 35.729 20.0581C39.9353 21.0542 41.6952 25.8107 39.2613 29.5834C38.9617 30.0441 38.9867 30.3056 39.2863 30.7538C41.8325 34.427 40.447 40.6402 34.5682 41.5492L34.5308 41.5616ZM58.4579 20.5437C55.5497 27.2177 52.654 33.8791 49.7583 40.5655C49.596 40.9515 49.3464 41.1632 48.9595 41.2628C47.886 41.5118 46.8126 41.5492 45.7517 41.2877C45.0278 41.1134 44.9154 40.8644 45.2025 40.192C47.3618 35.1865 49.5086 30.1811 51.668 25.1632C51.7678 24.9266 51.9301 24.69 51.9176 24.3538C51.0813 24.3538 50.2575 24.3538 49.4338 24.3538C47.7862 24.3538 46.1511 24.3538 44.5035 24.3787C44.0542 24.3787 43.7921 24.2169 43.6548 23.8184C43.2928 22.7725 43.2554 21.7017 43.5425 20.6309C43.6673 20.1826 43.9544 19.971 44.4536 19.971C49.0094 19.9834 53.5652 19.9834 58.1084 19.971C58.6327 19.971 58.6327 20.1328 58.4579 20.5437ZM75.0958 20.5313C72.1876 27.2052 69.2919 33.8791 66.3962 40.5531C66.2339 40.9391 65.9843 41.1632 65.5974 41.2503C64.5239 41.5118 63.4505 41.5367 62.3896 41.2877C61.6657 41.1134 61.5533 40.8644 61.8404 40.192C63.9872 35.199 66.1341 30.206 68.2809 25.2254C68.3932 24.964 68.5056 24.7025 68.6179 24.441C68.3433 24.304 68.1062 24.3538 67.8815 24.3538C65.6598 24.3538 63.4256 24.3538 61.2039 24.3787C60.7046 24.3787 60.405 24.2044 60.2677 23.7562C59.9557 22.7476 59.8933 21.7142 60.1679 20.6931C60.2927 20.22 60.5673 19.971 61.104 19.9834C65.6598 19.9959 70.2155 19.9959 74.7713 19.9834C75.2831 19.9834 75.308 20.1204 75.1208 20.5437L75.0958 20.5313Z" fill="#D9D9D9"/>
<path d="M16.6198 29.9943C16.0206 29.9943 15.4215 29.9943 14.8224 29.8449C14.2108 29.6831 13.8364 29.3095 13.724 28.6994C13.5493 27.7904 13.5618 26.8815 13.774 25.985C13.9862 25.076 14.5353 24.4908 15.4964 24.3414C16.0581 24.2543 16.6073 24.2667 17.169 24.3041C18.1924 24.3788 18.7791 24.9266 19.0037 25.9352C19.2534 27.0185 19.2908 28.1142 19.3283 29.2099C19.3283 29.571 19.191 29.7329 18.8415 29.7827C18.1051 29.9072 17.3562 30.0068 16.6073 29.9943H16.6198Z" fill="#D9D9D9"/>
</g>
<defs>
<clipPath id="clip0_22_143">
<rect width="85" height="64" fill="white"/>
</clipPath>
</defs>
</svg>

<svg xmlns="http://www.w3.org/2000/svg" width="85" height="64" fill="none" viewBox="0 0 85 64"><g fill="#d9d9d9" clip-path="url(#a)"><path d="M81.86 22.847c-1.422-1.867-3.22-3.35-5.229-4.557-.4-.249-.462-.436-.275-.872 1.436-3.262 2.821-6.549 4.257-9.811.174-.399.124-.61-.225-.872-1.997-1.519-4.181-2.69-6.515-3.61C68.406.97 62.689.11 56.86.01 46.064-.175 35.704 1.93 25.756 6.051c-6.44 2.664-12.394 6.125-17.499 10.932-3.033 2.863-5.604 6.076-7.114 10.01-1.935 5.043-1.473 9.8 1.847 14.17 1.423 1.868 3.22 3.35 5.23 4.557.4.237.461.436.274.86-1.435 3.262-2.833 6.549-4.256 9.811-.175.399-.137.598.212.872 2.172 1.643 4.556 2.889 7.09 3.847 5.804 2.18 11.845 2.864 17.586 2.939a72 72 0 0 0 6.266-.299c9.424-.822 18.435-3.2 26.985-7.26 5.704-2.701 10.959-6.088 15.39-10.633 2.621-2.69 4.805-5.665 6.078-9.239 1.748-4.93 1.224-9.55-1.984-13.77m-58.088 7.645c0 1.084.062 2.167-.038 3.25 0 .137 0 .274-.05.411.063 3.474-1.697 7.222-6.553 7.583-1.847.137-3.657-.1-5.441-.46-1.249-.262-1.985-1.42-1.748-2.603.237-1.208 1.41-1.967 2.671-1.756 1.386.224 2.784.536 4.207.3 1.41-.225 2.296-1.209 2.408-2.616.038-.41-.174-.323-.412-.286-1.61.236-3.22.311-4.83-.075-2.896-.697-4.743-2.976-4.818-5.952-.025-.909-.05-1.817.1-2.726.512-3.188 2.87-5.38 6.116-5.653 1.485-.125 2.946-.025 4.356.498 1.111.41 1.91 1.145 2.521 2.116 1.011 1.607 1.436 3.387 1.523 5.255.038.909 0 1.818-.012 2.74zm10.759 11.07c-2.184.336-4.356.112-6.516-.187-1.26-.175-1.31-.237-1.323-1.557 0-.747.075-1.494.287-2.216.15-.473.412-.685.949-.685.899 0 1.772.2 2.659.312 1.198.149 2.409.211 3.594-.063 1.735-.398 2.472-2.64 1.348-4.009-.274-.336-.611-.436-1.036-.473-1.91-.125-3.819-.125-5.729-.112-.474 0-.724-.137-.823-.598-.213-.959-.437-1.905-.337-2.889.074-.747.237-.884.986-.884 1.897.013 3.781 0 5.666-.224.961-.112 1.585-.76 1.673-1.768.087-.959-.45-1.706-1.386-1.93-.96-.236-1.947-.162-2.72-.124-1.461.1-2.734.112-3.982.323-.45.075-.737-.087-.862-.51-.361-1.133-.361-2.279-.037-3.437.062-.236.2-.398.474-.423 2.771-.274 5.555-.71 8.313-.05 4.206.996 5.966 5.753 3.532 9.525-.3.461-.274.723.025 1.17 2.547 3.674 1.161 9.887-4.718 10.796zm23.927-21.018a9683 9683 0 0 0-8.7 20.022c-.162.386-.412.597-.799.697-1.073.249-2.146.286-3.207.025-.724-.175-.837-.424-.55-1.096 2.16-5.005 4.307-10.01 6.466-15.029.1-.236.262-.473.25-.81h-2.484c-1.648 0-3.283 0-4.93.026-.45 0-.712-.162-.85-.56a5.34 5.34 0 0 1-.112-3.188c.125-.448.412-.66.912-.66 4.555.012 9.111.012 13.654 0 .525 0 .525.162.35.573m16.638-.013a13808 13808 0 0 0-8.7 20.022c-.162.386-.412.61-.799.697-1.073.262-2.146.287-3.207.038-.724-.175-.837-.424-.55-1.096 2.147-4.993 4.294-9.986 6.44-14.967l.338-.784c-.275-.137-.512-.087-.736-.087-2.222 0-4.456 0-6.678.025-.5 0-.799-.175-.936-.623-.312-1.008-.375-2.042-.1-3.063.125-.473.4-.722.936-.71q6.834.02 13.667 0c.512 0 .537.137.35.56z"/><path d="M16.62 29.994c-.6 0-1.199 0-1.798-.15-.611-.16-.986-.535-1.098-1.145a6.4 6.4 0 0 1 .05-2.714c.212-.909.761-1.494 1.722-1.644.562-.087 1.111-.074 1.673-.037 1.023.075 1.61.623 1.835 1.631.25 1.084.287 2.18.324 3.275 0 .361-.137.523-.486.573-.737.124-1.486.224-2.235.211z"/></g><defs><clipPath id="a"><path fill="#fff" d="M0 0h85v64H0z"/></clipPath></defs></svg>
